svgs/sharp-solid/line-columns.svg

<svg xmlns="http://www.w3.org/2000/svg" viewBox="0 0 512 512"><!--! Font Awesome Pro 6.6.0 by @fontawesome - https://fontawesome.com License - https://fontawesome.com/license (Commercial License) Copyright 2024 Fonticons, Inc. --><path d="M224 32L0 32 0 96l224 0 0-64zm0 128L0 160l0 64 224 0 0-64zM0 288l0 64 224 0 0-64L0 288zM224 416L0 416l0 64 224 0 0-64zM288 32l0 64 224 0 0-64L288 32zM512 160l-224 0 0 64 224 0 0-64zM288 288l0 64 224 0 0-64-224 0zM512 416l-224 0 0 64 224 0 0-64z"/></svg>

<svg xmlns="http://www.w3.org/2000/svg" viewBox="0 0 512 512"><!--! Font Awesome Pro 6.4.2 by @fontawesome - https://fontawesome.com License - https://fontawesome.com/license (Commercial License) Copyright 2023 Fonticons, Inc. --><path d="M224 32H0V96H224V32zm0 128H0v64H224V160zM0 288v64H224V288H0zM224 416H0v64H224V416zM288 32V96H512V32H288zM512 160H288v64H512V160zM288 288v64H512V288H288zM512 416H288v64H512V416z"/></svg>
